resources/haticons/SVG/calendar_view_day.svg

<!-- Generated by IcoMoon.io -->
<svg version="1.1" xmlns="http://www.w3.org/2000/svg" width="24" height="24" viewBox="0 0 24 24">
<title>calendar_view_day</title>
<path d="M3 6h18v2.016h-18v-2.016zM3 9.984h18v5.016h-18v-5.016zM3 17.016h18v1.969h-18v-1.969z"></path>
</svg>

<svg xmlns="http://www.w3.org/2000/svg" width="24" height="24"><path d="M3 6h18v2.016H3V6zm0 3.984h18V15H3V9.984zm0 7.032h18v1.969H3v-1.969z"/></svg>
